icon-themes/sifr_svg/cmd/lc_lastpage.svg

<svg viewBox="0 0 24 24" xmlns="http://www.w3.org/2000/svg"><path d="m3 12a1 1 0 0 0 1 1 1 1 0 0 0 1-1 1 1 0 0 0 -1-1 1 1 0 0 0 -1 1zm4 0c0 .552285.447715 1 1 1s1-.447715 1-1-.447715-1-1-1-1 .447715-1 1zm1 8h.414062.585938c.30945 0 .516365-.112772.75-.28125l8.25-7.71875-8.25-7.71875c-.19768-.19095-.44055-.28125-.75-.28125h-.585938-.414062v1c0 .25689.12983.52846.3125.71875l6.6875 6.28125-6.6875 6.28125c-.18267.19029-.3125.503736-.3125.71875zm11 0h2v-16h-2z" fill="#555753"/></svg>

<?xml version="1.0" encoding="UTF-8" standalone="no"?>
<svg
   xmlns:dc="http://purl.org/dc/elements/1.1/"
   xmlns:cc="http://creativecommons.org/ns#"
   xmlns:rdf="http://www.w3.org/1999/02/22-rdf-syntax-ns#"
   xmlns:svg="http://www.w3.org/2000/svg"
   xmlns="http://www.w3.org/2000/svg"
   xmlns:sodipodi="http://sodipodi.sourceforge.net/DTD/sodipodi-0.dtd"
   xmlns:inkscape="http://www.inkscape.org/namespaces/inkscape"
   viewBox="0 0 24 24"
   version="1.1"
   id="svg4"
   sodipodi:docname="lc_lastpage.svg"
   inkscape:version="0.92.4 (unknown)">
  <metadata
     id="metadata10">
    <rdf:RDF>
      <cc:Work
         rdf:about="">
        <dc:format>image/svg+xml</dc:format>
        <dc:type
           rdf:resource="http://purl.org/dc/dcmitype/StillImage" />
        <dc:title></dc:title>
      </cc:Work>
    </rdf:RDF>
  </metadata>
  <defs
     id="defs8" />
  <sodipodi:namedview
     pagecolor="#ffffff"
     bordercolor="#666666"
     borderopacity="1"
     objecttolerance="10"
     gridtolerance="10"
     guidetolerance="10"
     inkscape:pageopacity="0"
     inkscape:pageshadow="2"
     inkscape:window-width="1366"
     inkscape:window-height="706"
     id="namedview6"
     showgrid="true"
     inkscape:zoom="9.8333333"
     inkscape:cx="-1.0677966"
     inkscape:cy="12"
     inkscape:window-x="0"
     inkscape:window-y="0"
     inkscape:window-maximized="1"
     inkscape:current-layer="svg4"
     showguides="false">
    <inkscape:grid
       type="xygrid"
       id="grid817" />
  </sodipodi:namedview>
  <path
     d="m 3,12 a 1,1 0 0 0 1,1 1,1 0 0 0 1,-1 1,1 0 0 0 -1,-1 1,1 0 0 0 -1,1 z m 4,0 c 0,0.552285 0.447715,1 1,1 0.552285,0 1,-0.447715 1,-1 0,-0.552285 -0.447715,-1 -1,-1 -0.552285,0 -1,0.447715 -1,1 z m 1,8 H 8.414062 9 c 0.30945,0 0.516365,-0.112772 0.75,-0.28125 L 18,12 9.75,4.28125 C 9.55232,4.0903 9.30945,4 9,4 H 8.414062 8 V 5 C 8,5.25689 8.12983,5.52846 8.3125,5.71875 L 15,12 8.3125,18.28125 C 8.12983,18.47154 8,18.784986 8,19 Z m 11,0 h 2 V 4 h -2 z"
     id="path2"
     inkscape:connector-curvature="0"
     style="fill:#555753" />
</svg>
